Numix-Light/22/panel/indicator-stickynotes-mono.svg

<svg version="1.1" viewBox="0 0 22 22" xmlns="http://www.w3.org/2000/svg">
 <path d="m2 2v18h18v-18zm2 4h2v2h-2zm4 0h10v2h-10zm-4 4h2v2h-2zm4 0h10v2h-10zm-4 4h2v2h-2zm4 0h10v2h-10z" style="fill:#353535"/>
</svg>

<svg viewBox="0 0 22 22" xmlns="http://www.w3.org/2000/svg">
 <path style="fill:#353535;opacity:1;fill-opacity:1;stroke:none;fill-rule:nonzero" d="m 2,2 0,8 -1,9 1,0 0,1 18,0 0,-1 1,0 -1,-9 0,-8 z M 4,6 6,6 6,8 4,8 Z M 8,6 18,6 18,8 8,8 Z m -4,4 2,0 0,2 -2,0 z m 4,0 10,0 0,2 -10,0 z m -4,4 2,0 0,2 -2,0 z m 4,0 10,0 0,2 -10,0 z"/>
</svg>
